X: 156
T: The Grove
%R: waltz
B: Chas & Sam Thompson "Twenty Four Country Dances for the Year 1779", London 1779, p.78 #2
F: http://www.vwml.org/browse/browse-collections-dance-tune-books/browse-thompsons1779
Z: 2014 John Chambers <jc:trillian.mit.edu> (added dance description)
M: 3/8
L: 1/8
K: Bb
% - - - - - - - - - - - - - - - - - - - - - - - - - - - - -
|:\
BBB | FDF | (B/c/d)B | (c/d/e)c |\
BBB | FDF | GeA | B3 :|\
|:\
fdb | fdB | egc | (B2A) |\
E(g/f/)g | DFB | GeA | [B3D3] :|
% - - - - - - - - - - Dance description - - - - - - - - - -
%%begintext align
%%   Foot it all four & change sides .|.
%% the same back again :|. lead down the
%% middle .|: up again and cast off :|:
%%endtext

%%sep 1 1 500
%%sep 1 1 500
